X: 31509
T: Paddy's Green Island
R: jig
M: 6/8
K: Dmajor
|:e|fdd edd|B/c/d B AFG|Add fed|cee eag|
fdd edd|B/c/d B AFG|Aaf ede|fdc d2:|
|:c|dfa afd|dfa afd|gab afd|cee eag|
fdd edd|B/c/d B AFG|Aaf ede|fdc d2:|

